flaticon/education/drawing.svg

<svg xmlns="http://www.w3.org/2000/svg" width="32" height="32" viewBox="0 0 24 24">
    <path d="M24 9.640625C24 9.519531 23.960938 9.441406 23.878906 9.359375L21.039062 6.519531C20.96875 6.449219 20.898438 6.410156 20.800781 6.402344L20.800781 3.222656C20.804688 3.175781 20.796875 3.132812 20.785156 3.089844 20.769531 3.035156 20.742188 2.988281 20.703125 2.945312 20.695312 2.9375 20.6875 2.929688 20.679688 2.921875L17.878906.121094C17.871094.113281 17.863281.105469 17.855469.0976562 17.8125.0585938 17.765625.03125 17.710938.015625 17.667969.00390625 17.625-.00390625 17.578125 0L5.199219 0C4.960938 0 4.800781.160156 4.800781.402344L4.800781 23.601562C4.800781 23.839844 4.960938 24 5.199219 24L20.398438 24C20.640625 24 20.800781 23.839844 20.800781 23.601562L20.800781 12.992188 23.878906 9.921875C23.960938 9.839844 24 9.761719 24 9.640625zM9.199219 14.800781L9.199219 9.199219 15.601562 9.199219 15.601562 11.402344 14.140625 12.878906 13.601562 13.417969 13.601562 12.800781C13.601562 12.5625 13.441406 12.402344 13.199219 12.402344L11.199219 12.402344C10.960938 12.402344 10.800781 12.5625 10.800781 12.800781L10.800781 14.800781zM9.199219 6.402344L9.199219 4.800781 10 4.800781 10 5.679688zM16 8.402344L8.558594 8.402344 12.398438 4.5625 16.238281 8.402344zM11.601562 13.199219L12.800781 13.199219 12.800781 14.199219 12.488281 14.535156 12.222656 14.800781 11.601562 14.800781zM19.441406 2.800781L18 2.800781 18 1.363281zM5.601562.800781L17.199219.800781 17.199219 3.203125C17.199219 3.441406 17.359375 3.601562 17.601562 3.601562L20 3.601562 20 7 16.398438 10.613281 16.398438 9.199219 17.199219 9.199219C17.359375 9.199219 17.519531 9.121094 17.558594 8.960938 17.640625 8.800781 17.601562 8.640625 17.480469 8.519531L12.679688 3.722656C12.519531 3.5625 12.28125 3.5625 12.121094 3.722656L10.800781 5.042969 10.800781 4.402344C10.800781 4.160156 10.640625 4 10.398438 4L8.800781 4C8.558594 4 8.398438 4.160156 8.398438 4.402344L8.398438 7.199219C8.398438 7.273438 8.414062 7.339844 8.445312 7.398438L7.320312 8.519531C7.199219 8.640625 7.160156 8.800781 7.242188 8.960938 7.28125 9.121094 7.441406 9.199219 7.601562 9.199219L8.398438 9.199219 8.398438 15.199219C8.398438 15.441406 8.558594 15.601562 8.800781 15.601562L11.425781 15.601562 9.273438 17.761719C9.230469 17.78125 9.195312 17.804688 9.160156 17.839844 9.125 17.875 9.097656 17.914062 9.078125 17.953125L7.878906 19.15625C7.835938 19.175781 7.796875 19.203125 7.761719 19.242188 7.722656 19.277344 7.695312 19.316406 7.675781 19.363281L6.519531 20.519531C6.359375 20.679688 6.359375 20.921875 6.519531 21.082031L8.640625 23.199219 5.601562 23.199219zM20 13.800781L20 23.199219 10.5625 23.199219 11.96875 21.796875zM9.601562 23.039062L7.359375 20.800781 8.058594 20.097656 8.878906 20.921875C8.960938 21 9.039062 21.039062 9.160156 21.039062 9.28125 21.039062 9.359375 21.039062 9.441406 20.921875 9.601562 20.761719 9.601562 20.519531 9.441406 20.359375L8.617188 19.539062 9.460938 18.695312 10.878906 20.082031C10.960938 20.160156 11.039062 20.199219 11.160156 20.199219 11.238281 20.199219 11.359375 20.160156 11.398438 20.082031 11.558594 19.921875 11.558594 19.679688 11.398438 19.519531L10.015625 18.136719 10.875 17.273438 11.71875 18.121094C11.800781 18.199219 11.878906 18.242188 12 18.242188 12.121094 18.242188 12.199219 18.199219 12.28125 18.121094 12.441406 17.960938 12.441406 17.71875 12.28125 17.558594L11.433594 16.714844 12.292969 15.851562 13.71875 17.28125C13.800781 17.359375 13.878906 17.398438 14 17.398438 14.078125 17.398438 14.199219 17.359375 14.238281 17.242188 14.398438 17.082031 14.398438 16.839844 14.238281 16.679688L12.859375 15.300781 13.71875 14.441406 14.558594 15.28125C14.640625 15.359375 14.71875 15.402344 14.839844 15.402344 14.917969 15.402344 15.039062 15.359375 15.121094 15.28125 15.28125 15.121094 15.28125 14.878906 15.121094 14.71875L14.28125 13.878906 15.121094 13.039062 16.519531 14.441406C16.597656 14.519531 16.679688 14.558594 16.800781 14.558594 16.917969 14.558594 17 14.519531 17.078125 14.441406 17.238281 14.28125 17.238281 14.039062 17.078125 13.878906L15.679688 12.480469 16.28125 11.878906C16.3125 11.847656 16.339844 11.8125 16.359375 11.773438L16.546875 11.585938 17.398438 12.441406C17.480469 12.519531 17.558594 12.5625 17.679688 12.5625 17.757812 12.5625 17.878906 12.519531 17.960938 12.441406 18.121094 12.28125 18.121094 12.039062 17.960938 11.878906L17.105469 11.027344 17.945312 10.183594 19.359375 11.601562C19.4375 11.679688 19.519531 11.722656 19.640625 11.722656 19.757812 11.722656 19.839844 11.679688 19.917969 11.601562 20.078125 11.441406 20.078125 11.199219 19.917969 11.039062L18.503906 9.625 19.339844 8.78125 20.199219 9.640625C20.277344 9.722656 20.359375 9.761719 20.480469 9.761719 20.597656 9.761719 20.679688 9.722656 20.757812 9.640625 20.917969 9.480469 20.917969 9.242188 20.757812 9.082031L19.902344 8.222656 20.757812 7.359375 23.039062 9.640625zM1.601562 0C.722656 0 0 .722656 0 1.601562L0 20.398438C0 20.441406 0 20.480469.0390625 20.558594L1.242188 23.761719C1.28125 23.878906 1.441406 24 1.601562 24 1.761719 24 1.921875 23.878906 1.960938 23.761719L3.160156 20.558594C3.199219 20.480469 3.199219 20.441406 3.199219 20.398438L3.199219 1.601562C3.199219.722656 2.480469 0 1.601562 0zM.800781 4.402344L2.402344 4.402344 2.402344 18.800781.800781 18.800781zM.800781 2.800781L2.402344 2.800781 2.402344 3.601562.800781 3.601562zM1.601562.800781C2.039062.800781 2.402344 1.160156 2.402344 1.601562L2.402344 2 .800781 2 .800781 1.601562C.800781 1.160156 1.160156.800781 1.601562.800781zM2.402344 20.320312L1.601562 22.441406.800781 20.320312.800781 19.601562 2.402344 19.601562zM2.402344 20.320312"/>
</svg>

<svg xmlns="http://www.w3.org/2000/svg" width="32" height="32" viewBox="0 0 24 24">
    <path d="M24 9.64c0-.12-.04-.199-.121-.28l-2.84-2.84a.358.358 0 0 0-.238-.118v-3.18a.376.376 0 0 0-.121-.3l-2.801-2.8-.024-.024A.376.376 0 0 0 17.578 0H5.2c-.238 0-.398.16-.398.402v23.2c0 .238.16.398.398.398h15.2c.242 0 .402-.16.402-.398v-10.61l3.078-3.07A.361.361 0 0 0 24 9.64zM9.2 14.8V9.2h6.402v2.202L14.14 12.88l-.54.539v-.617c0-.239-.16-.399-.402-.399h-2c-.238 0-.398.16-.398.399v2zm0-8.398V4.801h.8v.879zm6.8 2H8.559l3.84-3.84 3.84 3.84zM11.602 13.2H12.8v1l-.313.336-.265.266h-.621zm7.84-10.398H18V1.363zM5.601.8h11.597v2.402c0 .238.16.399.403.399H20V7l-3.602 3.613V9.2h.801c.16 0 .32-.078.36-.238.082-.16.043-.32-.079-.441l-4.8-4.797a.385.385 0 0 0-.559 0l-1.32 1.32v-.64c0-.243-.16-.403-.403-.403H8.801c-.242 0-.403.16-.403.402V7.2c0 .074.016.14.047.2L7.32 8.518c-.12.122-.16.282-.078.442.04.16.2.238.36.238h.796v6c0 .242.16.403.403.403h2.625l-2.153 2.16a.368.368 0 0 0-.113.078.439.439 0 0 0-.082.113l-1.2 1.203a.35.35 0 0 0-.116.086.328.328 0 0 0-.086.121L6.52 20.52a.39.39 0 0 0 0 .562l2.12 2.117H5.603zM20 13.8v9.398h-9.438l1.407-1.402zM9.602 23.039l-2.243-2.238.7-.703.82.824c.082.078.16.117.281.117.121 0 .2 0 .281-.117a.39.39 0 0 0 0-.563l-.824-.82.844-.844 1.418 1.387c.082.078.16.117.281.117.078 0 .2-.039.238-.117a.39.39 0 0 0 0-.562l-1.382-1.383.859-.864.844.848c.082.078.16.121.281.121.121 0 .2-.043.281-.12a.39.39 0 0 0 0-.563l-.847-.844.859-.863 1.426 1.43c.082.077.16.116.281.116.078 0 .2-.039.238-.156a.39.39 0 0 0 0-.562L12.86 15.3l.86-.859.84.84c.082.078.16.121.28.121.079 0 .2-.043.282-.12a.39.39 0 0 0 0-.563l-.84-.84.84-.84 1.399 1.402c.078.079.16.118.28.118.118 0 .2-.04.278-.118a.39.39 0 0 0 0-.562L15.68 12.48l.601-.601a.41.41 0 0 0 .078-.106l.188-.187.851.855c.082.079.16.121.282.121.078 0 .199-.042.28-.12a.39.39 0 0 0 0-.563l-.855-.852.84-.843 1.414 1.418c.078.078.16.12.282.12.117 0 .199-.042.277-.12a.39.39 0 0 0 0-.563l-1.414-1.414.836-.844.86.86c.077.082.16.12.28.12.118 0 .2-.038.278-.12a.385.385 0 0 0 0-.559l-.856-.86.856-.863 2.281 2.282zm0 0M1.602 0C.722 0 0 .723 0 1.602v18.796a.3.3 0 0 0 .04.16l1.202 3.204c.04.117.2.238.36.238.16 0 .32-.121.359-.238l1.2-3.203c.038-.079.038-.118.038-.16V1.601C3.2.722 2.48 0 1.602 0zM.8 4.402h1.601v14.399H.801zm0-1.601h1.601v.8H.801zm.8-2c.438 0 .801.36.801.8V2H.801v-.398C.8 1.16 1.16.8 1.6.8zm.801 19.52l-.8 2.12-.801-2.12v-.72h1.601zm0 0"/>
</svg>
